!!!OTL: VATER NOAH WEINERFINDER
!!!ARE: Europa, Mitteleuropa, Deutschland
!!!SCT: E1695
!!!YEM: Copyright 1995, estate of Helmut Schaffrath.
**kern
*ICvox
*Ivox
*M2/4
*k[f#]
*G:
=1
{4.g
8a
=2
4b
4b
=3
8a
8g
8a
8b
=4
4g
4d}
=5
{4.b
8cc
=6
4dd
4dd
=7
8cc
8b
8cc
8dd
=8
4b
4r}
=9
{4.g
8a
=10
4b
4b
=11
8a
8g
8a
8b
=12
4g
4d}
=13
{4.b
8cc
=14
4dd
4dd
=15
8cc
8b
8cc
8dd
=16
4b
4r}
=17
{4dd
4dd
=18
4ee
8ee
8dd
=19
4cc
4cc
=20
4dd
4r}
=21
{4.g
8a
=22
4b
4cc
=23
4dd
4dd
=24
4g
4r}
==
!!!AGN: Staende -, Studenten - Lied, Trink - Lied
!!!ONB: ESAC (Essen Associative Code) Database: ERK3
!!!AMT: simple duple
!!!AIN: vox
!!!EED: Helmut Schaffrath
!!!EEV: 1.0
*-
